X:3
T:Hanno
M:12/8
L:1/8
C:Ed Wosika (c)2010
R:Single Jig
K:D
| "D"fA eA dc "A7"AG=c (3AB^c g| "D"fA eA dc "G"GAf "A7"gag|\
"D"fA eA dc "A7"FGf E ag|1 "D"(3fed =c "A7"ABG  GED "D"D3:|\
[2 "D"fde "A7"=cAF GED "D"D3||\
"D"~a3 "A7"gec "C"d=cA "A7"(3FGA g| "D"~a3 "A7"gec "C"d=cA "A7"G3|\
"D"~a3 "A7"gec "C"d=cA "A7"FGE|1 "D"DFA "G"GBd "C"=cAG "A7"A3|
:|2 "D"dfa "A7"gec "C"d=cA "A7"G3||
